X: 12550
T: Farewell To London
R: reel
M: 4/4
K: Gmajor
|:GB~B2 cABA|GABd eBdB|AD ~D2 ADFA|cdcA ~B2 cA|
GABG AGFA|GABG ABce|dg ~g2 fgag|1 fdcA G3F:|2 fdcA G2Bc||
|:dg ~g2 fgaf|gdBG DCB,D|C2 EC B,CDG|FGAB c2Bc|
dg ~g2 fgaf|gdBG DCB,D|C2 EC B,CDB|BAFA G2Bc:|

